client/src/assets/icons/settings-icon.svg

<svg width="31" height="31" viewBox="0 0 31 31" fill="none" xmlns="http://www.w3.org/2000/svg">
<g id="settings&#226;&#128;&#148;icon">
<path id="icon" d="M11.9487 28.4166L11.432 24.2833C11.1522 24.1756 10.8885 24.0464 10.6409 23.8958C10.3933 23.7451 10.1511 23.5836 9.91432 23.4114L6.07161 25.026L2.51953 18.8905L5.84557 16.3718C5.82405 16.2211 5.81328 16.0758 5.81328 15.9359V15.064C5.81328 14.9241 5.82405 14.7787 5.84557 14.628L2.51953 12.1093L6.07161 5.97388L9.91432 7.58846C10.1511 7.41624 10.3987 7.25478 10.657 7.10408C10.9154 6.95339 11.1737 6.82422 11.432 6.71659L11.9487 2.58325H19.0529L19.5695 6.71659C19.8494 6.82422 20.1131 6.95339 20.3607 7.10408C20.6082 7.25478 20.8504 7.41624 21.0872 7.58846L24.93 5.97388L28.482 12.1093L25.156 14.628C25.1775 14.7787 25.1883 14.9241 25.1883 15.064V15.9359C25.1883 16.0758 25.1668 16.2211 25.1237 16.3718L28.4497 18.8905L24.8977 25.026L21.0872 23.4114C20.8504 23.5836 20.6029 23.7451 20.3445 23.8958C20.0862 24.0464 19.8279 24.1756 19.5695 24.2833L19.0529 28.4166H11.9487ZM15.5654 20.0208C16.814 20.0208 17.8796 19.5794 18.7622 18.6968C19.6449 17.8142 20.0862 16.7485 20.0862 15.4999C20.0862 14.2513 19.6449 13.1857 18.7622 12.303C17.8796 11.4204 16.814 10.9791 15.5654 10.9791C14.2952 10.9791 13.2242 11.4204 12.3523 12.303C11.4805 13.1857 11.0445 14.2513 11.0445 15.4999C11.0445 16.7485 11.4805 17.8142 12.3523 18.6968C13.2242 19.5794 14.2952 20.0208 15.5654 20.0208Z" fill="#1D1B20"/>
</g>
</svg>

<svg xmlns="http://www.w3.org/2000/svg" width="31" height="31" fill="none"><path fill="#1D1B20" d="m11.9487 28.4166-.5167-4.1333a4.9186 4.9186 0 0 1-.7911-.3875 10.644 10.644 0 0 1-.7266-.4844L6.0716 25.026l-3.552-6.1355 3.326-2.5187a3.0845 3.0845 0 0 1-.0323-.4359v-.8719c0-.1399.0107-.2853.0323-.436l-3.326-2.5187 3.552-6.1354 3.8427 1.6146a8.805 8.805 0 0 1 .7427-.4844 6.5107 6.5107 0 0 1 .775-.3875l.5167-4.1334h7.1042l.5166 4.1334c.2799.1076.5436.2368.7912.3875.2475.1507.4897.3121.7265.4844L24.93 5.9739l3.552 6.1354-3.326 2.5187c.0215.1507.0323.2961.0323.436v.8719c0 .1399-.0215.2852-.0646.4359l3.326 2.5187-3.552 6.1355-3.8105-1.6146a8.7976 8.7976 0 0 1-.7427.4844 6.52 6.52 0 0 1-.775.3875l-.5166 4.1333h-7.1042Zm3.6167-8.3958c1.2486 0 2.3142-.4414 3.1968-1.324.8827-.8826 1.324-1.9483 1.324-3.1969s-.4413-2.3142-1.324-3.1969c-.8826-.8826-1.9482-1.3239-3.1968-1.3239-1.2702 0-2.3412.4413-3.2131 1.3239-.8718.8827-1.3078 1.9483-1.3078 3.1969s.436 2.3143 1.3078 3.1969c.8719.8826 1.9429 1.324 3.2131 1.324Z"/></svg>
